X:135
M:6/8
L:1/8
K:G
ga |: bgd B2b | c'gf dcA | A,B,C F2A | ccf afd | 
bgb dBd | geg ecA | A,CD/F/ B,DG/B/ | cAF AFD :| 
|: G2G gdB | gdB cAF | DFA cAF | cAF afd | 
bgb Bcg | ecA FAc | dBG DGB | cAF Dga :| 
|: bgd B2b | c'af dcA | A,DF A,CF | G,B,D Gga | 
bgd B2b | c'af dcA | A,DF A,CF | G,B,D G3 :|| 

